X: 8
T: The Tempest
R: reel
M: 4/4
L: 1/8
K: Dmix
|:d2 cA GE (3EEE|DEGE c (3EEE|d2cA GEcE|EDCD ED2A|
d2 cA GE (3EEE|DEGE c (3EEE|AdcA GEcE |EDCD ED (3DDD:|
|:d2 ed cAGc|AdcA GE (3EEE|d2 ed cdeg|edcA d4|
(3ege dg ecAG |cAGc AE (3EEE|DEGc AEcE|EDCD EDAc:|


Tune 1004	Setting 1004

